X:101
T:Trip to Nettle Bed THO1.101, A
M:6/8
L:1/8
Z:vmp. Peter Dunk 2012.from a transcription by Fynn Titford-Mock 2006
B:Thompson's Compleat Collection of 200 Favourite Country Dances Vol.I,1758
Q:3/8=100
K:Eb
(EG)B (eB)G|(cA)F {E}D2 C|(B,D)F (DF)A|\
(GB)D E2 (3B/c/d/|e/B/ TB2 f/B/ TB2|(ge)c {B}=A2 G|
F=Ac (Ac)e|1df=A B2 (3_A/G/F/:|2df=A B3|:\
f2 g (fd)B|(ge)c (fd)B|{a}(gf)g agf|
edc {c}=B3|(ge)c a3|(fd)B g3|(ag)f (ed)c|\
G2 (3F/E/D/ C2(3B/c/d/|{d} e3 BGE|cAF {E}D3|
f2 aga|cfe {e}d3|bgd eBc|afc d=AB|eBG cAF|BGD {D}E3:|

